svgs/light/pipe-section.svg

<svg xmlns="http://www.w3.org/2000/svg" viewBox="0 0 640 512"><!--! Font Awesome Pro 6.4.0 by @fontawesome - https://fontawesome.com License - https://fontawesome.com/license (Commercial License) Copyright 2023 Fonticons, Inc. --><path d="M32 112c0-8.8-7.2-16-16-16s-16 7.2-16 16v32V368v32c0 8.8 7.2 16 16 16s16-7.2 16-16V384H608v16c0 8.8 7.2 16 16 16s16-7.2 16-16V368 144 112c0-8.8-7.2-16-16-16s-16 7.2-16 16v16H256 32V112zM608 352H32V160H256 608V352z"/></svg>

<svg xmlns="http://www.w3.org/2000/svg" viewBox="0 0 640 512"><!--! Font Awesome Pro 6.3.0 by @fontawesome - https://fontawesome.com License - https://fontawesome.com/license (Commercial License) Copyright 2023 Fonticons, Inc. --><path d="M624 96C615.2 96 608 103.2 608 112V128H32V112C32 103.2 24.83 96 16 96S0 103.2 0 112v288C0 408.8 7.168 416 16 416S32 408.8 32 400V384h576v16c0 8.832 7.168 16 16 16s16-7.168 16-16v-288C640 103.2 632.8 96 624 96zM608 352H32V160h576V352z"/></svg>
